X:1
T:Norsk sjømands-sang
T:Norsk sjømandssang (Versjon 2)
T:B. Bjørnson
T:Friedrich August Reissiger
C:Friedrich August Reissiger
%%score [ 1 2 3 4 ]
L:1/8
Q:1/4=60
M:3/4
K:A
V:1 treble-8 nm="T1"
V:2 treble-8 nm="T2"
V:3 treble-8 nm="Baryton"
V:4 bass nm="Bass"
V:1
"^Moderato con anima" E | A A A A A/ G/ A/ B/ | c e a3/2 f/ e f | B c e3/2 d/ c f | %4
w: Den|nor- ske sjø- mand er en gjen- nem-|bar- ket fol- ke- færd; hvor|far- tøj fly- de kan der|
 B c e3/2 d/ c c | B3 e g3/2 f/ | e2 z e e e | a3/2 c/ c c d c | f/ e/ d/ c/ B B c d | e4 ^e2 | %10
w: er han før- ste mand, der|er han før- ste|mand. På togt og|hjem- me her, ved sund og|skjær og fis- ke- vær, han har sit|Gud i|
 f3 f g a | (e2 f3) d | c4 z |] %13
w: sind, og sæt- ter|li- * vet|ind.|
V:2
 E | A A A A A/ G/ A/ B/ | c e f3/2 d/ c B | B A G3/2 G/ A B | G A c3/2 B/ A A | G3 B e3/2 ^d/ | %6
w: Den|nor- ske sjø- mand er en gjen- nem-|bar- ket fol- ke- færd; hvor|far- tøj fly- de kan der|er han før- ste mand, der|er han før- ste|
 e2 z B c d | c3/2 A/ A A ^A A | B/ c/ B/ ^A/ B G =A G | (A2 c2) B2 | A3 A B ^B | (c3 d) B2 | %12
w: mand. På togt og|hjem- me her, ved sund og|skjær og fis- ke- vær, han har sit|Gud _ i|sind, og sæt- ter|li- * vet|
 A4 z |] %13
w: ind.|
V:3
 E | A A A A A/ G/ A/ B/ | c c d3/2 A/ A A | G A c3/2 B/ A A | E E F3/2 G/ A E | E3 G B3/2 A/ | %6
w: Den|nor- ske sjø- mand er en gjen- nem-|bar- ket fol- ke- færd; hvor|far- tøj fly- de kan der|er han før- ste mand, der|er han før- ste|
 G2 z G A B | A3/2 A/ A A =G G | F/ =G/ F/ F/ F E E E | (E2 A2) G2 | F3 F ^E F | (A2 ^AB) G2 | %12
w: mand. På togt og|hjem- me her, ved sund og|skjær og fis- ke- vær, han har sit|Gud _ i|sind, og sæt- ter|li- * * vet|
 E4 z |] %13
w: ind.|
V:4
 E, | A, A, A, A, A,/ G,/ A,/ B,/ | C A, D,3/2 F,/ A, D, | E, E, E,3/2 E,/ A,, D, | %4
w: Den|nor- ske sjø- mand er en gjen- nem-|bar- ket fol- ke- fætd; hvor|far- tøj fly- de kan der|
 D, C, B,,3/2 E,/ A,, A,, | B,, (E,/G,/) B,2 B,,2 | E,2 z E, E, E, | F,3/2 F,/ F, F, E, E, | %8
w: er han før- ste mand, der|er han _ før- ste|mand. På togt og|hjem- me her, ved sund og|
"_\"Oktober 1870\"" D,/ ^A,,/ B,,/ C,/ D, D, C, B,, | C,4 C,2 | D,3 D, D, ^D, | E,4 E,2 | A,,4 z |] %13
w: skjær og fis- ke- vær, han har sit|Gud i|sind, og sæt- ter|li- vet|ind.|

